dist/images/icons/check-circle.svg

<?xml version="1.0" encoding="UTF-8"?>
<svg xmlns="http://www.w3.org/2000/svg" xmlns:xlink="http://www.w3.org/1999/xlink" width="20pt" height="20pt" viewBox="0 0 20 20" version="1.1">
<g id="surface1">
<path style=" stroke:none;fill-rule:nonzero;fill:rgb(0,128,0);fill-opacity:1;" d="M 19.6875 10 C 19.6875 15.351562 15.351562 19.6875 10 19.6875 C 4.648438 19.6875 0.3125 15.351562 0.3125 10 C 0.3125 4.648438 4.648438 0.3125 10 0.3125 C 15.351562 0.3125 19.6875 4.648438 19.6875 10 Z M 8.878906 15.128906 L 16.066406 7.941406 C 16.3125 7.699219 16.3125 7.300781 16.066406 7.058594 L 15.183594 6.175781 C 14.9375 5.929688 14.542969 5.929688 14.300781 6.175781 L 8.4375 12.035156 L 5.699219 9.300781 C 5.457031 9.054688 5.0625 9.054688 4.816406 9.300781 L 3.933594 10.183594 C 3.6875 10.425781 3.6875 10.824219 3.933594 11.066406 L 7.996094 15.128906 C 8.238281 15.375 8.636719 15.375 8.878906 15.128906 Z M 8.878906 15.128906 "/>
</g>
</svg>

<svg xmlns="http://www.w3.org/2000/svg" width="20pt" height="20pt" viewBox="0 0 20 20"><path d="M19.688 10A9.686 9.686 0 0110 19.688 9.686 9.686 0 01.312 10 9.686 9.686 0 0110 .312 9.686 9.686 0 0119.688 10zm-10.81 5.129l7.188-7.188a.62.62 0 000-.882l-.882-.883a.62.62 0 00-.883 0l-5.864 5.86L5.7 9.3a.62.62 0 00-.883 0l-.882.883a.62.62 0 000 .882l4.062 4.063a.62.62 0 00.883 0zm0 0" fill="green" id="surface1"/></svg>
